X: 1
T: John Ryan's
R: polka
M: 2/4
L: 1/8
K: Dmaj
dd B/c/d/B/ | AF ED | dd B/c/d/B/ | AF E2 |
dd B/c/d/B/ | AF Ad | fd ec | d2 d2 ||
fd de/f/ | gf ed | fd de/f/ | gf a2 |
fd de/f/ | gf ed | fd ec | d2 d2 ||


Tune 441	Setting 13304

